SFASUI/public/images/add--padding.svg

<svg width="16" height="20" viewBox="0 0 16 20" fill="none" xmlns="http://www.w3.org/2000/svg">
<path d="M4.3096 12.9552L9.9252 7.20342C9.98536 7.1418 10.4667 6.64879 11.2288 6.38174C12.2918 6.03252 13.3748 6.32011 14.2372 7.20342C15.1196 8.08673 15.3803 9.17546 15.0394 10.2642C14.7987 11.0448 14.2973 11.5789 14.2372 11.6405L8.20041 17.8237C7.15751 18.8919 4.55027 20.2682 2.14358 17.8237C-0.243047 15.3792 1.12074 12.6882 2.14358 11.6405L8.62158 4.98488C8.86224 4.73837 9.2433 4.73837 9.48397 4.98488C9.72464 5.23138 9.72464 5.62168 9.48397 5.86819L3.02603 12.5238C2.92576 12.606 0.900129 14.7629 3.02603 16.9404C5.09177 19.0562 7.1174 17.1663 7.33801 16.9404L13.3748 10.7367C13.3748 10.7367 13.7157 10.3874 13.8762 9.89444C14.0767 9.23709 13.9363 8.66191 13.3748 8.08673C12.1714 6.85421 11.0082 7.88131 10.7876 8.08673L5.17199 13.818C4.97144 14.0234 4.83105 14.3726 5.17199 14.7218C5.51294 15.071 5.83383 14.9067 6.03439 14.7218L9.9252 10.7367C10.1659 10.5107 10.567 10.5107 10.7876 10.7367C11.0283 10.9832 11.0283 11.394 10.7876 11.6405L6.89679 15.6051C6.35528 16.1392 5.25222 16.5706 4.3096 15.6051C3.34692 14.6397 3.76809 13.4893 4.3096 12.9552Z" fill="#4B3A5A"/>
</svg>

<svg width="16" height="20" fill="none" xmlns="http://www.w3.org/2000/svg"><path d="m4.31 12.955 5.615-5.752c.06-.061.542-.554 1.304-.821 1.063-.35 2.146-.062 3.008.821.883.884 1.143 1.972.802 3.061a3.692 3.692 0 0 1-.802 1.377L8.2 17.823c-1.042 1.068-3.65 2.444-6.056 0-2.387-2.445-1.023-5.136 0-6.184l6.478-6.655a.595.595 0 0 1 .862 0 .63.63 0 0 1 0 .883l-6.458 6.656c-.1.082-2.126 2.239 0 4.416 2.066 2.116 4.091.226 4.312 0l6.037-6.203s.34-.35.501-.843c.2-.657.06-1.232-.501-1.807-1.204-1.233-2.367-.206-2.587 0l-5.616 5.731c-.2.205-.34.555 0 .904s.662.185.862 0l3.891-3.985c.24-.226.642-.226.863 0 .24.246.24.657 0 .903l-3.891 3.965c-.542.534-1.645.966-2.587 0-.963-.965-.542-2.116 0-2.65Z" fill="#4B3A5A"/></svg>
